X: 28484
T: Muñeira'l Gallu
R: jig
M: 6/8
K: Eminor
~B3|:eBf gfe|~f3fed|edc edc|~B3 ~B3|
eBf gfe|~f3fed|edc fdc|1 ~B3 ~B3:|2 ~B3 efg||
|:f2b agf|g2e efg|f2b agf|~e3 efg|f2b agf|
g2e efg|1 f3 ^def|e2g gfe:|2 ~f3 agf|~e3 ~B3||

